X: 55
T: Firtur
B:[[Notböcker/Melodier til gamle danske Almuedanse for Violin solo]]
O:Danmark
Z:Søren Bak Vestergaard
M: 2/4
L: 1/8
K: D
A|f2 (fA)|f2 (fA)|f2 (fg)|afdf|e2 (eA)|\
e2 (eA)|e2 (eg)|bage|f2 (fA)|f2 (fA)|f2 (fg)|\
afdf|e2 (eA)|e2 (eA)|bage|d2 z:| |:A|f2 (g/f/e/f/)|\
afdf|gece|df aA|f2 (g/f/e/f/)|afdf|gece|d2 z:|

